X: 35819
T: Saltón D'Urbiés
R: reel
M: 4/4
K: Ddorian
|:Adef- fede-|edef f2e2|Adef- fede-|edcB d2cG|Adef- fede-|
edef a2f2|1 Adef- fede-|edcB d2cG:|2 Adef- fede-|edcB d2 ce||
K: Cmaj
|:dcBd c3e|dcBd gefe|dcBd cdef|1 dcBG c3e:|2 dcBG c3G||
K: Gmaj
|:G2AB c2BA|G2AB cdBd|A3G A2Bc|d2ed c2dc|1 BdAd G3D:|2 BdAdG4||

